public/mascots/dropout/bear-homecoming-32x32.svg

<svg xmlns="http://www.w3.org/2000/svg" width="32" height="32" viewBox="0 0 32 32"><defs><linearGradient id="a" x1="0%" x2="100%" y1="0%" y2="100%"><stop offset="0%" style="stop-color:#8b4513"/><stop offset="100%" style="stop-color:#654321"/></linearGradient><linearGradient id="b" x1="0%" x2="0%" y1="0%" y2="100%"><stop offset="0%" style="stop-color:#4169e1"/><stop offset="100%" style="stop-color:#191970"/></linearGradient></defs><circle cx="10" cy="8" r="4" fill="url(#a)"/><circle cx="22" cy="8" r="4" fill="url(#a)"/><circle cx="10" cy="8" r="2" fill="#d2691e"/><circle cx="22" cy="8" r="2" fill="#d2691e"/><ellipse cx="16" cy="12" fill="url(#a)" rx="8" ry="7"/><ellipse cx="16" cy="14" fill="#deb887" rx="4" ry="3"/><ellipse cx="16" cy="13" fill="#333" rx="2" ry="1.5"/><circle cx="13" cy="11" r="1.5" fill="#fff"/><circle cx="13.3" cy="11" r=".8" fill="#333"/><circle cx="19" cy="11" r="1.5" fill="#fff"/><circle cx="18.7" cy="11" r=".8" fill="#333"/><path fill="gold" d="m8 6 2-4 2 2 2-2 2 2 2-2 2 2 2-2 2 4Z"/><circle cx="10" cy="2" r="1" fill="#ff69b4"/><circle cx="14" cy="2" r="1" fill="#ff69b4"/><circle cx="18" cy="2" r="1" fill="#ff69b4"/><circle cx="22" cy="2" r="1" fill="#ff69b4"/><path fill="url(#b)" d="M10 18q0-3 6-4 6 1 6 4 0 8-6 10-6-2-6-10"/><path stroke="#191970" stroke-width=".5" d="M16 16v10"/><ellipse cx="9" cy="21" fill="url(#b)" rx="2" ry="3"/><ellipse cx="23" cy="21" fill="url(#b)" rx="2" ry="3"/></svg>

<svg xmlns="http://www.w3.org/2000/svg" viewBox="0 0 32 32" width="32" height="32">
  <defs>
    <linearGradient id="hbBearBrown32" x1="0%" y1="0%" x2="100%" y2="100%">
      <stop offset="0%" style="stop-color:#8B4513"/>
      <stop offset="100%" style="stop-color:#654321"/>
    </linearGradient>
    <linearGradient id="hbBearJacket32" x1="0%" y1="0%" x2="0%" y2="100%">
      <stop offset="0%" style="stop-color:#4169E1"/>
      <stop offset="100%" style="stop-color:#191970"/>
    </linearGradient>
  </defs>
  
  <!-- Ears -->
  <circle cx="10" cy="8" r="4" fill="url(#hbBearBrown32)"/>
  <circle cx="22" cy="8" r="4" fill="url(#hbBearBrown32)"/>
  <circle cx="10" cy="8" r="2" fill="#D2691E"/>
  <circle cx="22" cy="8" r="2" fill="#D2691E"/>
  
  <!-- Head -->
  <ellipse cx="16" cy="12" rx="8" ry="7" fill="url(#hbBearBrown32)"/>
  
  <!-- Snout -->
  <ellipse cx="16" cy="14" rx="4" ry="3" fill="#DEB887"/>
  <ellipse cx="16" cy="13" rx="2" ry="1.5" fill="#333"/>
  
  <!-- Eyes -->
  <circle cx="13" cy="11" r="1.5" fill="#FFF"/>
  <circle cx="13.3" cy="11" r="0.8" fill="#333"/>
  <circle cx="19" cy="11" r="1.5" fill="#FFF"/>
  <circle cx="18.7" cy="11" r="0.8" fill="#333"/>
  
  <!-- Homecoming Crown -->
  <path d="M8 6 L10 2 L12 4 L14 2 L16 4 L18 2 L20 4 L22 2 L24 6 Z" fill="#FFD700"/>
  <circle cx="10" cy="2" r="1" fill="#FF69B4"/>
  <circle cx="14" cy="2" r="1" fill="#FF69B4"/>
  <circle cx="18" cy="2" r="1" fill="#FF69B4"/>
  <circle cx="22" cy="2" r="1" fill="#FF69B4"/>
  
  <!-- Body/Jacket -->
  <path d="M10 18 Q10 15 16 14 Q22 15 22 18 Q22 26 16 28 Q10 26 10 18Z" fill="url(#hbBearJacket32)"/>
  <line x1="16" y1="16" x2="16" y2="26" stroke="#191970" stroke-width="0.5"/>
  
  <!-- Arms -->
  <ellipse cx="9" cy="21" rx="2" ry="3" fill="url(#hbBearJacket32)"/>
  <ellipse cx="23" cy="21" rx="2" ry="3" fill="url(#hbBearJacket32)"/>
</svg>
